src/components/Selfie/assets/selfie-picto.svg

<?xml version="1.0" encoding="UTF-8"?>
<svg width="48px" height="48px" viewBox="0 0 48 48" version="1.1" xmlns="http://www.w3.org/2000/svg" xmlns:xlink="http://www.w3.org/1999/xlink">
    <!-- Generator: sketchtool 58 (101010) - https://sketch.com -->
    <title>4AC96ADE-960E-4714-9DCC-1660088A0142@1.00x</title>
    <desc>Created with sketchtool.</desc>
    <defs>
        <circle id="path-1" cx="24" cy="24" r="24"></circle>
        <circle id="path-3" cx="24" cy="24" r="24"></circle>
    </defs>
    <g id="Symbols" stroke="none" stroke-width="1" fill="none" fill-rule="evenodd">
        <g id="selfie-picto">
            <g>
                <mask id="mask-2" fill="white">
                    <use xlink:href="#path-1"></use>
                </mask>
                <use id="green-circle" fill="#00C9A1" xlink:href="#path-1"></use>
                <mask id="mask-4" fill="white">
                    <use xlink:href="#path-3"></use>
                </mask>
                <use id="Mask" fill="#D5DAE0" xlink:href="#path-3"></use>
                <g id="selfie" mask="url(#mask-4)">
                    <g transform="translate(8.000000, 6.000000)">
                        <g id="face-background" transform="translate(1.000000, 1.000000)">
                            <path d="M15.516129,0.0322580645 C21.7872333,0.0322580645 26.8709677,6.73354439 26.8709677,15 C26.8709677,15.0743944 26.870556,15.1486621 26.8697354,15.2227993 C28.809886,16.0131876 29.9677419,17.0115187 29.9677419,18.0967742 C29.9677419,19.3692383 28.3759674,20.522202 25.7975361,21.3611632 C24.4680933,25.0883269 22.0065304,27.9750751 18.9969796,29.2513426 C20.0349206,30.0915593 20.6774194,31.2585835 20.6774194,32.5483871 C20.6774194,32.8833687 20.6340815,33.2100687 20.551743,33.5249383 C26.0691593,34.476683 29.9677419,36.807738 29.9677419,39.5322581 C29.9677419,43.1042933 23.2664556,46 15,46 C6.73354439,46 0.0322580645,43.1042933 0.0322580645,39.5322581 C0.0322580645,36.8078076 3.93064129,34.4768022 9.44851205,33.5239802 C9.36591848,33.2100687 9.32258065,32.8833687 9.32258065,32.5483871 C9.32258065,31.1000815 10.1326936,29.8065858 11.4023947,28.9546928 C8.68163304,27.5605802 6.46970265,24.8234371 5.23472492,21.3609826 C2.65629069,20.522202 1.06451613,19.3692383 1.06451613,18.0967742 C1.06451613,17.0114764 2.22246223,16.0131099 4.16290613,15.2223544 L4.16129032,15 C4.16129032,6.73354439 9.24502478,0.0322580645 15.516129,0.0322580645 Z" fill="#F7F9FA"></path>
                        </g>
                        <g id="face">
                            <path d="M6.60508935,11.74223 C6.33367242,12.1717009 5.75850655,12.3041559 5.32042043,12.0380765 C4.8823343,11.7719972 4.74722222,11.2081422 5.01863915,10.7786713 C5.04751297,10.7329834 5.09733779,10.6581 5.16767262,10.5581243 C5.28049556,10.3977551 5.41284561,10.2207086 5.56433792,10.031084 C5.9944972,9.4926487 6.49569912,8.95513642 7.06603057,8.4516477 C8.71440235,6.99646476 10.6048329,6.1042446 12.7108121,6.08783833 C13.679869,6.08085501 14.5661722,6.29889133 15.5354195,6.73520375 C16.1807254,7.02569206 18.4872065,8.32390767 18.4926332,8.32678437 C21.0408789,9.67760905 23.4900472,10.3456756 27.1188845,10.3456756 C27.6342354,10.3456756 28.0520099,10.7552343 28.0520099,11.2604506 C28.0520099,11.7656669 27.6342354,12.1752257 27.1188845,12.1752257 C23.1637116,12.1752257 20.4139324,11.4251606 17.6049537,9.93612145 C17.5309671,9.89690114 15.3111152,8.64744522 14.7566423,8.39784594 C14.0196539,8.06608626 13.3953555,7.9125048 12.7250862,7.91733481 C11.1366662,7.92970924 9.65288211,8.63000582 8.31487668,9.81119728 C7.83009984,10.2391584 7.40073611,10.699628 7.03360142,11.1591747 C6.90604084,11.3188437 6.79592931,11.4661414 6.7039731,11.5968502 C6.65144045,11.6715214 6.61826248,11.7213857 6.60508935,11.74223 Z" id="Shape" fill="#2B2D33"></path>
                            <path d="M13,25 C14.3333333,25.2 15.3333333,25.3 16,25.3 C16.6666667,25.3 17.6666667,25.2 19,25" id="Line" stroke="#2B2D33" stroke-width="1.5" stroke-linecap="round" stroke-linejoin="round" fill-rule="nonzero"></path>
                            <ellipse id="Oval" fill="#2B2D33" cx="21.9537469" cy="18.2630273" rx="1.21965261" ry="1.21753515"></ellipse>
                            <path d="M25.2102953,13.2152964 C25.6466189,13.4658123 25.7431243,13.9481771 25.425846,14.2926884 C25.1085677,14.6371997 24.4976526,14.7133982 24.0613289,14.4628824 C22.7680375,13.7203373 21.0991782,13.5187322 19.5838624,13.9219857 C19.0726334,14.0580331 18.5185202,13.8410944 18.3462161,13.4374395 C18.1739119,13.0337845 18.4486649,12.5962693 18.9598939,12.4602218 C21.0752267,11.8972927 23.4049015,12.1787271 25.2102953,13.2152964 Z" id="Shape" fill="#2B2D33"></path>
                            <ellipse id="Oval" fill="#2B2D33" cx="10.9768734" cy="18.2630273" rx="1.21965261" ry="1.21753515"></ellipse>
                            <path d="M8.86908856,14.4625186 C8.43350634,14.7131127 7.82294331,14.6376349 7.50535787,14.2939342 C7.18777244,13.9502334 7.28342773,13.4684623 7.71900996,13.2178682 C9.52369437,12.179618 11.854673,11.8969509 13.9711792,12.4596961 C14.4820234,12.5955214 14.756601,13.0323961 14.5844655,13.4354831 C14.41233,13.83857 13.8586656,14.0552284 13.3478214,13.9194031 C11.8316651,13.5162813 10.1618718,13.7187695 8.86908856,14.4625186 Z" id="Shape" fill="#2B2D33"></path>
                            <path d="M27.8403466,16.5550596 C27.3397825,16.5550596 26.933995,16.1197376 26.933995,15.5827407 C26.933995,15.0457438 27.3397825,14.6104218 27.8403466,14.6104218 C30.0341646,14.6104218 31.8126055,16.5183035 31.8126055,18.8717949 C31.8126055,21.2252862 30.0341646,23.1331679 27.8403466,23.1331679 C27.3397825,23.1331679 26.933995,22.6978459 26.933995,22.160849 C26.933995,21.6238522 27.3397825,21.1885302 27.8403466,21.1885302 C29.0330363,21.1885302 29.9999023,20.1512925 29.9999023,18.8717949 C29.9999023,17.5922973 29.0330363,16.5550596 27.8403466,16.5550596 Z" id="Shape" fill="#2B2D33"></path>
                            <path d="M5.19191145,14.6104218 C5.6924756,14.6104218 6.09826303,15.0457438 6.09826303,15.5827407 C6.09826303,16.1197376 5.6924756,16.5550596 5.19191145,16.5550596 C3.99922178,16.5550596 3.03235577,17.5922973 3.03235577,18.8717949 C3.03235577,20.1512925 3.99922178,21.1885302 5.19191145,21.1885302 C5.6924756,21.1885302 6.09826303,21.6238522 6.09826303,22.160849 C6.09826303,22.6978459 5.6924756,23.1331679 5.19191145,23.1331679 C2.99809347,23.1331679 1.21965261,21.2252862 1.21965261,18.8717949 C1.21965261,16.5183035 2.99809347,14.6104218 5.19191145,14.6104218 Z" id="Shape" fill="#2B2D33"></path>
                            <path d="M25.4500004,23.8075713 C25.6388801,23.3184306 25.7880988,22.8054102 25.9019752,22.2643116 C26.1890386,20.9002922 26.2356062,19.7363777 26.1870364,17.4253018 C26.1724681,16.7321052 26.1684819,16.4899446 26.1684819,16.1530786 L26.1684819,11.7996475 C26.1684819,6.22019367 21.9279146,1.83213995 16.4475857,1.83213995 C10.968634,1.83213995 6.72668954,6.22099895 6.72668954,11.7996475 L6.72668954,20.6514818 C6.72668954,20.9986302 6.74529986,21.193131 6.78276138,21.3804552 C6.78781306,21.4057158 6.81658993,21.5399865 6.82509839,21.5835077 C6.83492543,21.6337734 6.84305533,21.6809617 6.84994941,21.7295852 C6.85441492,21.7651257 6.86095679,21.8100322 6.87345643,21.8819253 C6.89587962,22.0108947 6.92685152,22.1625644 6.96765314,22.3347526 C7.08654048,22.8364727 7.26012474,23.3947112 7.49834133,23.9918577 C8.82677129,27.3181418 12.3334335,29.823774 16.4508114,29.823774 C20.2670771,29.823774 24.0045771,27.5616913 25.4230475,23.8882228 C25.4307072,23.861205 25.4396805,23.8342967 25.4500004,23.8075713 Z M16.4508114,31.655914 C11.5543229,31.655914 7.38040778,28.6735064 5.77991072,24.6659875 C5.50738177,23.982829 5.30738525,23.3396501 5.16854955,22.7537453 C5.11914811,22.5452647 5.08084224,22.3576804 5.05223325,22.1931327 C5.03574604,22.0983048 5.02499505,22.0261577 5.01893698,21.9783005 C5.00625294,21.908951 4.97858172,21.7798392 4.96996578,21.7367557 C4.90863003,21.4300497 4.87861042,21.1163079 4.87861042,20.6514818 L4.87861042,11.7996475 C4.87861042,5.22622774 9.92989322,0 16.4475857,0 C22.9667165,0 28.016561,5.22547753 28.016561,11.7996475 L28.016561,16.1530786 C28.016561,16.4723141 28.0204368,16.7077681 28.0347145,17.3871377 C28.0861028,19.8323261 28.0355014,21.0970646 27.711098,22.6385097 C27.5840781,23.2420615 27.418053,23.8208769 27.2080568,24.3783688 C25.503857,28.9277842 21.0281322,31.655914 16.4508114,31.655914 Z" id="Shape" fill="#2B2D33"></path>
                            <path d="M20.1292704,30.1355872 C20.1292704,29.6496151 20.5376934,29.2556569 21.0415086,29.2556569 C21.5453239,29.2556569 21.9537469,29.6496151 21.9537469,30.1355872 L21.9537469,33.5323169 L21.9503012,33.5704482 C21.6755877,36.6105677 19.0439872,38.9476373 15.880326,38.9611249 C12.7166648,38.9744962 10.0638415,36.6598586 9.76139887,33.6221891 L9.75722084,33.5802259 L9.75722084,30.1007739 C9.75722084,29.6148019 10.1656438,29.2208437 10.6694591,29.2208437 C11.1732744,29.2208437 11.5816974,29.6148019 11.5816974,30.1007739 L11.5816974,33.4939106 C11.8131132,35.6063077 13.6656669,37.2105902 15.8722969,37.2012233 C18.0802072,37.1918509 19.9189031,35.570028 20.1292704,33.4539477 L20.1292704,30.1355872 Z" id="Shape" fill="#2B2D33"></path>
                            <path d="M29.7790215,40.4716847 C29.6916147,40.2678145 29.5538359,40.0281987 29.3704825,39.7675462 C28.9566724,39.1792798 28.3487479,38.5347812 27.6042267,37.9147482 C25.8119531,36.4221531 23.4770599,35.2497136 20.8748073,34.6799709 C20.3798662,34.5716075 20.0668436,34.0841723 20.1756517,33.591254 C20.2844599,33.0983357 20.7738953,32.7865924 21.2688364,32.8949558 C24.1660479,33.5292774 26.7676992,34.8356664 28.781445,36.5127023 C30.5550315,37.9897349 31.7109677,39.6329969 31.7109677,40.8002878 C31.7109677,41.8835303 29.8872845,43.5473508 27.3895871,44.8563272 C24.2542285,46.4994849 20.3304845,47.483871 15.8560177,47.483871 C11.3815572,47.483871 7.45760818,46.4994865 4.32194988,44.8563458 C1.82393968,43.547344 0,41.8835487 0,40.8002878 C0,39.6431217 1.15355406,38.0205979 2.92448977,36.5499081 C4.9211522,34.8917614 7.49290376,33.587814 10.3383308,32.9392118 C10.832317,32.8266099 11.3244285,33.1341464 11.4374925,33.6261138 C11.5505565,34.1180811 11.241758,34.6081814 10.7477718,34.7207833 C8.19088635,35.3036137 5.87957321,36.4755118 4.09976226,37.9535722 C3.35787503,38.5696793 2.75137155,39.208105 2.33858998,39.7887001 C2.15537557,40.0463991 2.01779783,40.2827873 1.9306615,40.483333 C1.8909232,40.5747913 1.86477199,40.6515775 1.85003963,40.7093298 C1.86502995,40.7330807 1.88360734,40.7605409 1.90568539,40.7910135 C2.03458047,40.9689174 2.24027111,41.1920782 2.50736768,41.4357234 C3.16066732,42.0316624 4.07940628,42.6640524 5.17647247,43.2389346 C8.05113713,44.7453101 11.6822425,45.65623 15.8560177,45.65623 C20.0297781,45.65623 23.6606515,44.7453191 26.5349937,43.2389532 C27.6319224,42.6640822 28.5505223,42.031705 29.2037144,41.4357713 C29.4707614,41.1921334 29.6764123,40.9689782 29.8052824,40.7910768 C29.8276984,40.7601321 29.8465052,40.7322936 29.8616124,40.7082912 C29.8468305,40.6477774 29.8200402,40.5673576 29.7790215,40.4716847 Z" id="Shape" fill="#2B2D33"></path>
                        </g>
                    </g>
                </g>
            </g>
        </g>
    </g>
</svg>

<svg width="48" height="48" xmlns="http://www.w3.org/2000/svg" xmlns:xlink="http://www.w3.org/1999/xlink">
  <defs>
    <circle id="a" cx="24" cy="24" r="24"/>
    <circle id="b" cx="24" cy="24" r="24"/>
  </defs>
  <g fill="none" fill-rule="evenodd">
    <use fill="#00C9A1" xlink:href="#a"/>
    <mask id="c" fill="#fff">
      <use xlink:href="#b"/>
    </mask>
    <use fill="#D5DAE0" xlink:href="#b"/>
    <g mask="url(#c)">
      <path d="M24.516 7.032c6.271 0 11.355 6.702 11.355 14.968l-.001.223c1.94.79 3.098 1.789 3.098 2.874 0 1.272-1.592 2.425-4.17 3.264-1.33 3.727-3.791 6.614-6.801 7.89 1.038.84 1.68 2.008 1.68 3.297 0 .335-.043.662-.125.977 5.517.952 9.416 3.283 9.416 6.007C38.968 50.104 32.266 53 24 53S9.032 50.104 9.032 46.532c0-2.724 3.899-5.055 9.417-6.008a3.828 3.828 0 0 1-.126-.976c0-1.448.81-2.741 2.08-3.593-2.721-1.394-4.933-4.132-6.168-7.594-2.579-.839-4.17-1.992-4.17-3.264 0-1.086 1.157-2.084 3.098-2.875L13.16 22c0-8.266 5.084-14.968 11.355-14.968z" fill="#F7F9FA"/>
      <g transform="translate(8 6)">
        <path d="M6.605 11.742a.944.944 0 0 1-1.285.296.904.904 0 0 1-.301-1.26 10.874 10.874 0 0 1 .546-.748c.43-.537.93-1.075 1.501-1.578 1.648-1.456 3.539-2.348 5.645-2.364.969-.007 1.855.21 2.824.647.646.29 2.952 1.589 2.958 1.592 2.548 1.35 4.997 2.019 8.626 2.019.515 0 .933.41.933.914a.924.924 0 0 1-.933.915c-3.955 0-6.705-.75-9.514-2.239-.074-.04-2.294-1.289-2.848-1.538-.737-.332-1.362-.485-2.032-.48-1.588.012-3.072.712-4.41 1.893a10.786 10.786 0 0 0-1.611 1.786 4.17 4.17 0 0 0-.099.145z" fill="#2B2D33"/>
        <path d="M13 25c1.333.2 2.333.3 3 .3.667 0 1.667-.1 3-.3" stroke="#2B2D33" stroke-width="1.5" stroke-linecap="round" stroke-linejoin="round"/>
        <ellipse fill="#2B2D33" cx="21.954" cy="18.263" rx="1.22" ry="1.218"/>
        <path d="M25.21 13.215c.437.25.533.733.216 1.078-.317.344-.928.42-1.365.17-1.293-.743-2.962-.944-4.477-.541-.511.136-1.065-.08-1.238-.485-.172-.403.103-.84.614-.977 2.115-.563 4.445-.281 6.25.755z" fill="#2B2D33"/>
        <ellipse fill="#2B2D33" cx="10.977" cy="18.263" rx="1.22" ry="1.218"/>
        <path d="M8.87 14.463c-.436.25-1.047.175-1.365-.17-.317-.343-.222-.825.214-1.075 1.805-1.038 4.136-1.321 6.252-.758.511.136.786.572.613.975-.172.404-.725.62-1.236.484-1.516-.403-3.186-.2-4.479.544zM27.84 16.555c-.5 0-.906-.435-.906-.972 0-.537.406-.973.906-.973 2.194 0 3.973 1.908 3.973 4.262 0 2.353-1.779 4.261-3.973 4.261-.5 0-.906-.435-.906-.972 0-.537.406-.972.906-.972 1.193 0 2.16-1.038 2.16-2.317 0-1.28-.967-2.317-2.16-2.317zM5.192 14.61c.5 0 .906.436.906.973 0 .537-.406.972-.906.972-1.193 0-2.16 1.037-2.16 2.317 0 1.28.967 2.317 2.16 2.317.5 0 .906.435.906.972 0 .537-.406.972-.906.972-2.194 0-3.972-1.908-3.972-4.261 0-2.354 1.778-4.262 3.972-4.262z" fill="#2B2D33"/>
        <path d="M25.45 23.808a9.97 9.97 0 0 0 .452-1.544c.287-1.364.334-2.528.285-4.839a55.047 55.047 0 0 1-.019-1.272V11.8c0-5.58-4.24-9.968-9.72-9.968S6.727 6.221 6.727 11.8v8.851c0 .348.018.542.056.73.005.025.034.159.042.203.01.05.018.097.025.146a7.717 7.717 0 0 0 .118.605c.119.501.292 1.06.53 1.657 1.329 3.326 4.835 5.832 8.953 5.832 3.816 0 7.554-2.262 8.972-5.936a.922.922 0 0 1 .027-.08zm-9 7.848c-4.896 0-9.07-2.982-10.67-6.99a13.732 13.732 0 0 1-.611-1.912 9.523 9.523 0 0 1-.15-.776c-.013-.069-.04-.198-.049-.241a5.271 5.271 0 0 1-.091-1.086V11.8C4.879 5.226 9.929 0 16.448 0c6.519 0 11.569 5.225 11.569 11.8v4.353c0 .32.003.555.018 1.234.051 2.445 0 3.71-.324 5.252a11.836 11.836 0 0 1-.503 1.74c-1.704 4.549-6.18 7.277-10.757 7.277z" fill="#2B2D33"/>
        <path d="M20.13 30.136c0-.486.408-.88.912-.88.503 0 .912.394.912.88v3.396l-.004.038c-.274 3.04-2.906 5.378-6.07 5.391-3.163.013-5.816-2.301-6.119-5.339l-.004-.042V30.1c0-.485.409-.88.912-.88.504 0 .913.395.913.88v3.394c.231 2.112 2.084 3.717 4.29 3.707 2.208-.01 4.047-1.631 4.257-3.747v-3.318z" fill="#2B2D33"/>
        <path d="M29.779 40.472a4.032 4.032 0 0 0-.409-.704c-.413-.589-1.021-1.233-1.766-1.853-1.792-1.493-4.127-2.665-6.73-3.235a.914.914 0 1 1 .395-1.785c2.897.634 5.499 1.94 7.512 3.618 1.774 1.477 2.93 3.12 2.93 4.287 0 1.084-1.824 2.747-4.321 4.056-3.136 1.643-7.06 2.628-11.534 2.628-4.474 0-8.398-.985-11.534-2.628C1.824 43.547 0 41.884 0 40.8c0-1.157 1.154-2.78 2.924-4.25 1.997-1.658 4.569-2.962 7.414-3.61a.914.914 0 1 1 .41 1.782c-2.557.582-4.868 1.754-6.648 3.232-.742.616-1.349 1.254-1.761 1.835a3.99 3.99 0 0 0-.408.694c-.04.092-.066.169-.081.226.015.024.034.052.056.082.129.178.334.401.601.645.654.596 1.572 1.228 2.67 1.803 2.874 1.506 6.505 2.417 10.679 2.417s7.805-.91 10.679-2.417c1.097-.575 2.016-1.207 2.669-1.803.267-.244.472-.467.601-.645.023-.03.042-.059.057-.083a1.566 1.566 0 0 0-.083-.236z" fill="#2B2D33"/>
      </g>
    </g>
  </g>
</svg>
